public/avatar/item0/25.svg

<svg xmlns:xlink="http://www.w3.org/1999/xlink" height="58.65" width="49.15" xmlns="http://www.w3.org/2000/svg"><use height="4.8" transform="translate(11.2 32.95)" width="25" xlink:href="#a"/><defs><g id="a" fill-rule="evenodd"><path d="M-12.75 17.2q-.7-2.4 1.65-2.35 3.15.15 3.6 1.95.25.85-.5 1.8-.8 1-1.75 1.05-2.25 0-3-2.45" fill="#fff" transform="translate(12.9 -14.85)"/><path d="M-7.5 16.8v.75q-3.2-1.6-5.15-2 .4-.7 1.55-.7 3.15.15 3.6 1.95m-5.3.05 4.15 2.4-1.1.4q-2.65 0-3.05-2.8" fill="#3ba6db" transform="translate(12.9 -14.85)"/><path d="M10.25 14.85q2.4-.05 1.65 2.35-.7 2.45-3 2.45-.95-.05-1.7-1.05-.75-.95-.5-1.8.45-1.8 3.55-1.95" fill="#fff" transform="translate(12.9 -14.85)"/><path d="M6.7 16.8q.45-1.8 3.55-1.95 1.15 0 1.6.7-2.15.45-5.15 2v-.75m5.3.05q-.5 2.8-3.1 2.8l-1.05-.4 4.15-2.4" fill="#3ba6db" transform="translate(12.9 -14.85)"/></g></defs></svg>

<?xml version="1.0" encoding="UTF-8" standalone="no"?>
<svg xmlns:xlink="http://www.w3.org/1999/xlink" height="58.65px" width="49.15px" xmlns="http://www.w3.org/2000/svg">
  <g transform="matrix(1.0, 0.0, 0.0, 1.0, 24.1, 18.1)">
    <use height="4.8" transform="matrix(1.0, 0.0, 0.0, 1.0, -12.9, 14.85)" width="25.0" xlink:href="#shape0"/>
  </g>
  <defs>
    <g id="shape0" transform="matrix(1.0, 0.0, 0.0, 1.0, 12.9, -14.85)">
      <path d="M-12.75 17.2 Q-13.45 14.8 -11.1 14.85 -7.95 15.0 -7.5 16.8 -7.25 17.65 -8.0 18.6 -8.8 19.6 -9.75 19.65 -12.0 19.65 -12.75 17.2" fill="#ffffff" fill-rule="evenodd" stroke="none"/>
      <path d="M-7.5 16.8 L-7.5 17.55 Q-10.7 15.95 -12.65 15.55 -12.25 14.85 -11.1 14.85 -7.95 15.0 -7.5 16.8" fill="#3ba6db" fill-rule="evenodd" stroke="none"/>
      <path d="M-12.8 16.85 L-8.65 19.25 -9.75 19.65 Q-12.4 19.65 -12.8 16.85" fill="#3ba6db" fill-rule="evenodd" stroke="none"/>
      <path d="M10.25 14.85 Q12.65 14.8 11.9 17.2 11.2 19.65 8.9 19.65 7.95 19.6 7.2 18.6 6.45 17.65 6.7 16.8 7.15 15.0 10.25 14.85" fill="#ffffff" fill-rule="evenodd" stroke="none"/>
      <path d="M6.7 16.8 Q7.15 15.0 10.25 14.85 11.4 14.85 11.85 15.55 9.7 16.0 6.7 17.55 L6.7 16.8" fill="#3ba6db" fill-rule="evenodd" stroke="none"/>
      <path d="M12.0 16.85 Q11.5 19.65 8.9 19.65 L7.85 19.25 12.0 16.85" fill="#3ba6db" fill-rule="evenodd" stroke="none"/>
    </g>
  </defs>
</svg>
